X:1
T:F Major James P. Carrell, 1821
T:Joseph Hart, 1759 Dialogue between a Believer and his Soul 76. 76. 76. 76.
T:Sympathy
T:Treble-Tenor-Bass Transcribed from Songs of Zion , 1821; Counter by B. C. Johnston, 2017.
%%score [ 1 2 3 4 ]
L:1/8
Q:1/4=120
M:2/4
K:F
V:1 treble nm="Tr." snm="Tr."
V:2 treble nm="C." snm="C."
V:3 treble-8 nm="T." snm="T."
V:4 bass nm="B." snm="B."
V:1
"^1. Come,  my  soul,  and  let  us  try   For   a       lit    –   tle     sea      –      –     son,     Eve  –  ry         burden    to   lay    by;   Come,  and   let   us\n2. Christ   by  faith  sometimes I see, Then  it    doth     re  –  lieve ______  me;     But      my       sins   re – turn  a–gain,  Those  are  they  that" c2 c2 | %1
 A2 B2 | G2 G2 | c4 | f2 f2 | e2 f2 | (B2 ce) | c4 | A2 A2 | B2 B2 | A2 G2 | F4 | d2 f2 | e2 e2 | %14
"^1. rea     –    son.   What  is  this  that  casts thee down?    Who   are      they    that    grieve ______   you?     Speak, and let the worst be known;\n2. grieve      me;    Troubled  like  the   rest  – less   sea,      Fee – ble,    faint,   and    fear      –      –       ful:       Plunged  in  sins,  a  sore  disease," (d3 c) | %15
 c4 | c2 c2 | d2 d2 | c2 B2 | A4 | AB c2 | f2 f2 | (d2 e/d/c) | c4 | f2 f2 | e2 e2 | f2 e2 | f4 | %28
"^1. Spea–king      may        re       –       lieve     you. \n2. How   can         I             be               cheer  – ful?" f2 e2 | %29
 d2 f2 | c4 | c4 |] %32
V:2
"^3. Think on what your Savior bore   In   the     gloo  –  my  gar     –      –      den,     Swea – ting   blood  from every pore,  To  pro – cure   thy\n4. Think how loud the dying  Lord  Cried  out, \"It       is       fin   –      –     ished.\"  Trea – sure     up   that   sa–cred  word  Whole  and  un–di –" A2 A2 | %1
 F2 GB | c2 c2 | A4 | c2 c2 | A>B A2 | d2 c2 | A4 | F2 A2 | B2 d2 | c2 B2 | c4 | B2 A2 | AG A2 | %14
"^3. par  –  don;       See him stretched up–on the wood,   Bleeding,      grie – ving,   cry       –      –       ing!    Suffering   all   the  wrath  of God,\n4. –mi– nished;   Doubt  not:  he   will    car – ry   on,     To       its        full     per  –  fec        –      –      tion,   That  good  work  he  has  begun," B4 | %15
 c4 | A2 A2 | B2 B2 | c2 d2 | c4 | c2 c2 | A2 A2 | F3 A | G4 | c2 c2 | c2 B2 | c2 c2 | c4 | %28
"^3. Groa – ning,     gas      –   ping,          dy  –  ing!\n4. Why    then       this          de       –      jec  – tion?" F2 AF | %29
 DE FA | G4 | A4 |] %32
V:3
"^5. Think  not  on  thyself  too   long,   Lest  it   sink    thee    lo       –      –      wer;   Look    to        Jesus, kind and strong,  Mercy   joined   with\n6. Jesus' precious blood, once spilled, I       de – pend   on     sole    –      –        ly;    To          re  –  lease and clear my guilt,  But   I    would    be" F2 F2 | %1
 A2 GF | c2 c2 | A4 | F2 F2 | A>B c2 | (d2 e/d/c) | c4 | dc de | f2 f2 | c2 B2 | A4 | f2 c2 | %13
 AB c2 | %14
"^5. po   –    wer;     Ev – ery  work  that   thou  must  do    Will   thy    gra  – cious     Sa        –      –       vior     For   thee  work,  and in thee too,\n6. ho   –       ly.      He   that  bought  thee  on  the  cross     Can   con – trol      thy       na       –      –        ture;    Ful – ly  purge  away  the   dross," (d3 e) | %15
 f4 | f2 f2 | d2 gf | e2 d2 | c4 | d2 c2 | cB A2 | (B3 A) | G4 | F2 F2 | A2 B2 | c2 c2 | f4 | %28
"^5. Of       his          spe    –    cial               fa  –   vor.\n6. Make  thee        a             new             crea – ture." d2 c2 | %29
 B>d cB/A/ | G4 | F4 |] %32
V:4
 F,2 F,2 | D,2 D,F, | E,2 E,2 | F,4 | C2 C2 | C>B, A,2 | G,4 | C,4 | F,2 E,2 | F,2 F,2 | F,2 G,2 | %11
 A,4 | B,2 A,2 | C>B, A,2 | G,4 | F,4 | F,2 F,2 | B,2 B,2 | G,2 G,2 | C,4 | F,2 G,2 | A,2 F,2 | %22
 (F,2 E,>F,) | G,4 | C2 C2 | C2 B,2 | A,2 C2 | F,4 | F,G, A,F, | D,2 F,D, | C,4 | F,4 |] %32

